X:1
T:The Golden Home-Lights
T:The Golden Home-Lights
T:Walter Powell Ganus
T:James Rowe, 1913
T:Public Domain Courtesy of the Cyber Hymnal™
C:Walter Powell Ganus
Z:Public Domain
Z:Courtesy of the Cyber Hymnal™
%%score ( 1 2 ) 3
L:1/8
Q:1/4=107
M:4/4
K:E
V:1 treble 
V:2 treble 
V:3 bass 
V:1
 ([EG][FA]) | [GB]2 [Ac]2 [GB]2 [EG]2 | [EG]2 [DF]2 [DF]2 ([DF][EG]) | [FA]2 [DF]2 [EG]2 [E^A]2 | %4
w: 1.~The *|gold- en home- lights|gleam and glow, And *|cheer me on and|
w: 2.~Tho’ *|wild- ly sweeps and|beats the storm, Tho’ *|trou- ble bil- lows|
w: 3.~Till *|all the dan- gers|have been passed, These *|lights will shine for|
 [DB]6 ([EG][FA]) | [GB]2 [Ac]2 [GB]2 [EG]2 | [EG]2 [DF]2 [DB]2 [=DB]2 | %7
w: on; Thus *|they will show the|way to go, Un-|
w: roll, These *|gold- en lights like|friend- ship warm, Give|
w: me, That *|I may praise my|God at last, Be-|
 [CA]2 [CF]2 [B,E]2 [B,D]2 | [B,E]6 ||"^Refrain" [AB]2 | e6 (dc) | B6 [EG]2 | %12
w: til the nights have|gone.||||
w: com- fort to my|soul.|O|lights of *|home, O|
w: side the crys- tal|sea.||||
 [DF]2 [DF]2 [EG]2 [E^A]2 | [DB]6 [AB]2 | e6 (dc) | B6 [=DB]2 | [CA]2 [CF]2 [B,E]2 [B,D]2 | %17
w: |||||
w: gold- en lights of|love, Shine|on till *|dawn, The|dawn of life a-|
w: |||||
 [CE]6 |] %18
w: |
w: bove.|
w: |
V:2
 x2 | x8 | x8 | x8 | x8 | x8 | x8 | x8 | x6 || x2 | (G2 A2 G2) G2 | (E2 D2 E2) x2 | x8 | x8 | %14
 (G2 A2 G2) G2 | (E2 =D2 E2) x2 | x8 | x6 |] %18
V:3
 [E,B,]2 | [E,E]2 [E,E]2 [E,E]2 [E,B,]2 | [B,,B,]2 [B,,B,]2 [B,,B,]2 [B,,B,]2 | %3
w: |||
 [B,,B,]2 [B,,B,]2 [E,B,]2 [C,F,]2 | [B,,F,]6 [E,B,]2 | [E,E]2 [E,E]2 [E,E]2 [E,B,]2 | %6
w: |||
 [B,,B,]2 [B,,B,]2 [B,,G,]2 [E,G,]2 | [A,,A,]2 [A,,A,]2 [B,,G,]2 [B,,F,]2 | [E,G,]6 || [B,D]2 | %10
w: |||O|
 [E,E]2 [E,C]2 [E,B,]2 [E,B,]2 | [E,G,]2 [F,A,]2 [G,B,]2 [E,B,]2 | %12
w: bless- èd lights of|home, sweet home, *|
 [B,,B,]2 [B,,B,]2 [E,B,]2 [C,F,]2 | [B,,F,]6 [B,D]2 | [E,E]2 [E,C]2 [E,B,]2 [E,B,]2 | %15
w: |* Shine|on and on, till|
 [E,G,]2 [F,A,]2 [G,B,]2 [E,G,]2 | [A,,A,]2 [A,,A,]2 [B,,G,]2 [B,,F,]2 | [E,G,]6 |] %18
w: breaks the dawn, *|||

